X:1
T:Bright Easter Skies
T:Bright Easter Skies
T:George W. Marston
T:Alexander Burgess, 1876
T:Public Domain Courtesy of the Cyber Hymnal™
T:Public Domain Courtesy of the Cyber Hymnal™
C:George W. Marston
Z:Public Domain
Z:Courtesy of the Cyber Hymnal™
%%score ( 1 2 ) ( 3 4 )
L:1/8
Q:1/4=95
M:2/4
K:G
V:1 treble 
V:2 treble 
V:3 bass 
V:4 bass 
V:1
 [Gd]2 [GB][Gd] | ([^Ae]2 [Bd]2) | [GB]2 [DG][GB] | (c2 B2) | [EA]2 [^Ge][Bd] | [Ac]4 | %6
w: 1.~Bright Eas- ter|skies! *|Fair Eas- ter|skies! *|Our Lord is|risen;|
w: 2.~Green Eas- ter|fields! *|Fair Eas- ter|fields! *|Heaven’s first ripe|fruit,|
w: 3.~Sweet Eas- ter|flowers! *|White Eas- ter|flowers! *|From Heaven des-|cend,|
w: 4.~O Chris- tian|child! *|O Chris- tian|men! *|Our vic- tor|Lord|
 [DG]2 [FB][FA] | [DG]4 | [CA]2 [CE]>[DF] | [EG]3 [FA] | [GB]2 [Gc]2 | (B2 A2) | [CA]2 [CE]>[DF] | %13
w: we, too, shall|rise.|Nor walls of|stone, hewn|firm and|cold, *|Nor Ro- man|
w: Death, con- quered,|yields.|In church- yards|wide the|seed we|sow, *|Be- neath the|
w: life giv- ing|showers.|Each plant that|bloomed at|E- den’s|birth, *|Shall blow a-|
w: shall come a-|gain.|Wake we our|hearts at|His com-|mand; *|Lift we our|
 [EG]3 [FA] | [GB]2 [Gc]2 | [Fd]4 | [CA]2 [CE]>[DF] | [EG]3 [FA] | [GB]2 [Gc]2 | (B2 A2) | %20
w: sol- diers,|brave and|bold;|Nor Sa- tan’s|mar- shaled|hosts could|keep *|
w: cross the|wheat shall|grow;|One Eas- ter|day death’s|reign shall|end, *|
w: gain o’er|ran- somed|earth.|Pluck lil- ies|rare and|ros- es|sweet, *|
w: love to|His right|hand;|With warm- est|hopes, to|Eas- ter|skies, *|
 [Fd]2 [Fc][Fc] | [FB]3 [EG] | [DF]2 [CF]2 | [DF]4 | [B,E]2 [B,E]>[^DF] | [EG]3 [EG] | %26
w: The pierc- èd|hands in|death- ly|sleep:|Just as the|Eas- ter|
w: And gold- en|sheaves shall|heav’n- ward|send.|Hail the blest|morn, by|
w: And strew the|path of|Je- sus’|feet;|Throw frag- rant|palms be-|
w: Stretch we our|arms, and|fix our|eyes;|Till in the|clouds His|
 [A,D]2 [CE]2 | [DF]3 [DF] | ([B,E][^DF]) ([EG][FA]) | ([GB][Ec]) [Dd]2 | [DF]2 [CE]2 | D4 || %32
w: day- beams|dawn, Our|bur- * ied *|Lord * is|risen and|gone.|
w: whose glad|light, An-|gels * shall *|reap * the|har- vest|white.|
w: fore our|king, And|wreathe * the *|crown * the|saved shall|bring.|
w: sign we|see, And|quick * and *|dead * shout,|“Ju- bi-|lee!”|
"^Refrain" [Gd]2 [GB][Gd] | ([^Ae]2 [Bd]2) | [GB]2 [DG][GB] | (c2 B2) | [EA]2 [^Ge][Bd] | [Ac]4 | %38
w: ||||||
w: ~~Bright Eas- ter|skies! *|Fair Eas- ter|skies! *|Our Lord is|risen:|
w: ||||||
w: ||||||
 [DG]2 [FB][FA] | [DG]4 |] %40
w: ||
w: We, too, shall|rise.|
w: ||
w: ||
V:2
 x4 | x4 | x4 | G4 | x4 | x4 | x4 | x4 | x4 | x4 | x4 | G4 | x4 | x4 | x4 | x4 | x4 | x4 | x4 | %19
 F4 | x4 | x4 | x4 | x4 | x4 | x4 | x4 | x4 | x4 | x4 | x4 | D4 || x4 | x4 | x4 | G4 | x4 | x4 | %38
 x4 | x4 |] %40
V:3
 [G,B,]2 [G,D][G,B,] | (^C2 D2) | [G,D]2 [G,B,][G,D] | (E2 D2) | C2 [E,B,][E,E] | [A,C]4 | %6
 [D,B,]2 [D,C][D,C] | [G,B,]4 | (A,,A,) (A,,A,) | (A,,A,) (A,,A,) | (A,,A,) (A,,A,) | %11
 (D,A,) (D,A,) | (A,,A,) (A,,A,) | (A,,A,) A,,A, | (A,,A,) (A,,A,) | [D,A,]4 | [A,,A,]2 [A,,A,]2 | %17
 [A,,A,]2 [A,,A,]2 | [A,,A,]2 [A,,A,]2 | [D,A,]4 | [B,,B,]2 [C,^A,][C,A,] | [D,B,]3 [E,B,] | %22
 [F,B,]2 [F,^A,]2 | [B,,B,]4 | [G,B,]2 [G,B,]>[F,B,] | [E,B,]3 [E,B,] | [A,,F,]2 [A,,A,]2 | %27
 [D,A,]3 [D,A,] | B,2 [E,B,]2 | ([E,G,][F,A,]) [G,B,]2 | A,2 [A,,G,]2 | [B,,F,]4 || %32
 [G,B,]2 [G,D][G,B,] | (^C2 D2) | [G,D]2 [G,B,][G,D] | (E2 D2) | C2 [E,B,][E,E] | [A,E]4 | %38
 [D,B,]2 [D,C][D,C] | [G,B,]4 |] %40
V:4
 x4 | G,4 | x4 | G,4 | C2 x2 | x4 | x4 | x4 | x4 | x4 | x4 | x4 | x4 | x4 | x4 | x4 | x4 | x4 | %18
 x4 | x4 | x4 | x4 | x4 | x4 | x4 | x4 | x4 | x4 | (G,F,) x2 | x4 | A,2 x2 | x4 || x4 | G,4 | x4 | %35
 G,4 | C2 x2 | x4 | x4 | x4 |] %40

